ix/attach-square_bold.svg

<svg viewBox="0 0 24 24" fill="none" xmlns="http://www.w3.org/2000/svg" height="1em" width="1em">
  <path d="M16.19 2H7.81C4.17 2 2 4.17 2 7.81v8.37C2 19.83 4.17 22 7.81 22h8.37c3.64 0 5.81-2.17 5.81-5.81V7.81C22 4.17 19.83 2 16.19 2Zm.18 12.35-2.22 2.22c-.54.54-1.24.8-1.94.8a2.75 2.75 0 0 1-2.75-2.74c0-.73.29-1.43.81-1.94l1.41-1.41c.29-.29.77-.29 1.06 0 .29.29.29.77 0 1.06l-1.41 1.41a1.234 1.234 0 0 0 0 1.76c.49.49 1.28.49 1.77 0l2.22-2.22a3.253 3.253 0 0 0-4.6-4.6L8.3 11.11a2.657 2.657 0 0 0 0 3.78c.29.29.29.77 0 1.06-.29.29-.77.29-1.06 0A4.05 4.05 0 0 1 6 13.01c0-1.12.43-2.17 1.22-2.96l2.42-2.42a4.762 4.762 0 0 1 6.72 0 4.753 4.753 0 0 1 .01 6.72Z" fill="#292D32"/>
</svg>

<svg viewBox="0 0 24 24" fill="none" xmlns="http://www.w3.org/2000/svg" height="1em" width="1em">
  <path d="M16.19 2H7.81C4.17 2 2 4.17 2 7.81V16.18C2 19.83 4.17 22 7.81 22H16.18C19.82 22 21.99 19.83 21.99 16.19V7.81C22 4.17 19.83 2 16.19 2ZM16.37 14.35L14.15 16.57C13.61 17.11 12.91 17.37 12.21 17.37C11.51 17.37 10.8 17.1 10.27 16.57C9.75 16.05 9.46 15.36 9.46 14.63C9.46 13.9 9.75 13.2 10.27 12.69L11.68 11.28C11.97 10.99 12.45 10.99 12.74 11.28C13.03 11.57 13.03 12.05 12.74 12.34L11.33 13.75C11.09 13.99 10.96 14.3 10.96 14.63C10.96 14.96 11.09 15.28 11.33 15.51C11.82 16 12.61 16 13.1 15.51L15.32 13.29C16.59 12.02 16.59 9.96 15.32 8.69C14.05 7.42 11.99 7.42 10.72 8.69L8.3 11.11C7.79 11.62 7.51 12.29 7.51 13C7.51 13.71 7.79 14.39 8.3 14.89C8.59 15.18 8.59 15.66 8.3 15.95C8.01 16.24 7.53 16.24 7.24 15.95C6.44 15.18 6 14.13 6 13.01C6 11.89 6.43 10.84 7.22 10.05L9.64 7.63C11.49 5.78 14.51 5.78 16.36 7.63C18.22 9.48 18.22 12.5 16.37 14.35Z" fill="#292D32"/>
</svg>
